!!!COM: Palestrina, Giovanni Perluigi da
!!!OPR: Missa Qual e il piu grande'amore
!!!OMD: Credo
!!!OTL: Crucifixus
**kern	**kern	**kern	**kern
*Itenor	*Icalto	*Icant	*Icant
!Tenor	!Altus	!Cantus 2	!Cantus 1
*clefGv2	*clefG2	*clefG2	*clefG2
*k[b-]	*k[b-]	*k[b-]	*k[b-]
*F:ion	*F:ion	*F:ion	*F:ion
*M4/2	*M4/2	*M4/2	*M4/2
=77	=77	=77	=77
0r	0r	0f	1r
.	.	.	[1f
=78	=78	=78	=78
0r	0r	1a	2f]
.	.	.	2f
.	.	1b-	1g
=79	=79	=79	=79
0F	1r	1cc	1a
.	[1c	2.a	2.f
.	.	4a	4f
=80	=80	=80	=80
1A	2c]	2a	2e
.	2c	2cc	2a
1B-	1d	1b-	2f
.	.	.	[2g
=81	=81	=81	=81
1c	1e	1g	4g]
.	.	.	4f
.	.	.	4e
.	.	.	4d
2.A	2.e	2.a	1c
4A	4e	4a	.
=82	=82	=82	=82
2A	2f	2a	2.cc
2c	2e	2g	.
.	.	.	4cc
2.B-	4d	[1b-	2f
.	4e	.	.
.	[2f	.	2f
4A	.	.	.
=83	=83	=83	=83
1G	4f]	1b-]	1g
.	8e	.	.
.	8d	.	.
.	2e	.	.
2F	2f	[1a	1cc
2F	2f	.	.
=84	=84	=84	=84
2.A	2.e	1a]	2r
.	.	.	2cc
4A	4c	.	.
2G	2d	1r	2.b-
2G	2e	.	.
.	.	.	4g
=85	=85	=85	=85
1d	1f	1r	2a
.	.	.	2b-
1A	2e	2r	1cc
.	2A	2a	.
=86	=86	=86	=86
1r	2B-	2.g	2dd
.	2c	.	4cc
.	.	4e	4b-
2r	2d	2f	2a
2B-	4d	2g	2dd
.	4e	.	.
=87	=87	=87	=87
2.A	4f	1a	2.cc
.	4g	.	.
.	2a	.	.
4F	.	.	4a
2G	2g	2d	2b-
2A	[2f	[2a	2cc
=88	=88	=88	=88
1B-	2f]	2a]	1dd
.	4e	2g	.
.	4d	.	.
2A	1e	[1a	2cc
[2A	.	.	[2cc
=89	=89	=89	=89
2A]	2r	1a]	2cc]
2A	1f	.	2cc
1B-	.	1r	1dd
.	2f	.	.
=90	=90	=90	=90
1G	1g	1r	1b-
1A	1e	2r	2.cc
.	.	[2a	.
.	.	.	4b-
=91	=91	=91	=91
2.D	4f	2a]	4a
.	4e	.	4g
.	4d	2a	4f
8E	4c	.	4e
8F	.	.	.
[1G	1B-	1b-	[1d
=92	=92	=92	=92
1G]	1B-	2g	2d]
.	.	1b-	2d
1F	1c	.	[1f
.	.	2a	.
=93	=93	=93	=93
2r	1F	1a	1f]
2F	.	.	.
2D	1f	2r	2r
2F	.	2cc	2a
=94	=94	=94	=94
2B-	2d	2b-	2dd
2F	2f	2a	2cc
1r	2B-	2dd	2b-
.	2F	2cc	2a
=95	=95	=95	=95
0r	2f	2r	2a
.	4f	2cc	4a
.	4f	.	4a
.	2e	4cc	2g
.	.	4cc	.
.	2d	2b-	2f
=96	=96	=96	=96
2A	2r	1a	2cc
4A	1f	.	4cc
4A	.	.	4cc
1G	.	2r	2.b-
.	2e	[2b-	.
.	.	.	4cc
=97	=97	=97	=97
1F	2f	2b-]	2dd
.	2a	2a	2cc
1B-	2g	2b-	1dd
.	[2f	2dd	.
=98	=98	=98	=98
2A	4f]	2cc	0r
.	4e	.	.
2B-	4d	2.b-	.
.	4c	.	.
1d	8B-	.	.
.	8c	.	.
.	8d	4a	.
.	8e	.	.
.	[2f	4a	.
.	.	8g	.
.	.	8f	.
=99	=99	=99	=99
1c	4f]	1g	1r
.	8e	.	.
.	8d	.	.
.	2e	.	.
[1F	[1f	1a	2r
.	.	.	2f
=100	=100	=100	=100
0F]	1f]	2r	2a
.	.	2f	2a
.	1r	2a	2.cc
.	.	2a	.
.	.	.	4b-
=101	=101	=101	=101
0r	2r	2cc	2a
.	2B-	2.dd	2.b-
.	2d	.	.
.	.	4cc	4a
.	2d	2b-	2dd
=102	=102	=102	=102
1r	2f	2a	2cc
.	2g	1dd	2.b-
2r	[1f	.	.
.	.	.	8a
.	.	.	8g
2F	.	[2cc	4a
.	.	.	4b-
=103	=103	=103	=103
2A	2f]	4cc]	4cc
.	.	4b-	4dd
2A	4e	2a	1cc
.	4d	.	.
2c	2e	2g	.
2d	2f	[2f	2b
=104	=104	=104	=104
1c	0g	2f]	0cc
.	.	4e	.
.	.	4d	.
2c	.	[1e	.
2c	.	.	.
=105	=105	=105	=105
4c	0r	1e]	2r
4B-	.	.	.
4A	.	.	2cc
4G	.	.	.
[1F	.	2r	4cc
.	.	.	4b-
.	.	2cc	4a
.	.	.	4g
=106	=106	=106	=106
1F]	2r	4cc	2.f
.	.	4b-	.
.	2f	4a	.
.	.	4g	4g
1r	4f	2f	2a
.	4e	.	.
.	4d	2f	2a
.	4c	.	.
=107	=107	=107	=107
0r	2B-	2g	2b-
.	2F	2a	2a
.	2G	2b-	2g
.	2A	[2a	[2f
=108	=108	=108	=108
2r	2B-	2a]	2f]
2d	2B-	2g	4e
.	.	.	4d
2d	1A	1a	2e
2c#	.	.	2e
=109	=109	=109	=109
1d	1f	2r	1a
.	.	2dd	.
1A	2e	2dd	2a
.	2e	2cc#	2a
=110	=110	=110	=110
2G	1g	1dd	1b-
2G	.	.	.
1F	2c	1a	1cc
.	[2f	.	.
=111	=111	=111	=111
2r	2f]	2g	2cc
2c	2e	2g	2cc
2d	2f	1f	2a
2d	2d	.	4g
.	.	.	4f
=112	=112	=112	=112
1c	2e	2r	2.g
.	2e	2cc	.
.	.	.	4a
2B-	2f	2dd	1b-
2B-	[2f	2dd	.
=113	=113	=113	=113
1A	2f]	1cc	2r
.	2e	.	2cc
1G	1g	2b-	2dd
.	.	2b-	2dd
=114	=114	=114	=114
1A	1e	1a	2cc
.	.	.	1cc
1E	1e	1g	.
.	.	.	2b-
=115	=115	=115	=115
1F	2c	2r	1a
.	2f	1cc	.
1G	4d	.	1g
.	4c	.	.
.	4d	[2b-	.
.	4e	.	.
=116	=116	=116	=116
0F	2.f	2b-]	1cc
.	.	4a	.
.	8e	4g	.
.	8d	.	.
.	[1c	2a	2cc
.	.	2a	2f
=117	=117	=117	=117
1F	2c]	2.f	2.a
.	2c	.	.
.	.	4f	4a
2C	1c	2e	1g
[2c	.	[2e	.
=118	=118	=118	=118
4c]	1r	4e]	1r
4A	.	4f	.
2B-	.	2g	.
1A	2r	1a	2r
.	[2e	.	[2cc
=119	=119	=119	=119
2r	4e]	1r	4cc]
.	4f	.	4a
2G	2g	.	2b-
4A	2f	1cc	2a
4B-	.	.	.
4c	2e	.	2a
4A	.	.	.
=120	=120	=120	=120
2B-	2d	2dd	2f
2A	1f	2cc	2f
1G	.	1b-	1g
.	2e	.	.
=121	=121	=121	=121
2F	2f	2a	1c
2.A	2.e	2.cc	.
.	.	.	1r
4A	4f	4a	.
2G	2g	2b-	.
=122	=122	=122	=122
1F	2c	2a	2r
.	2f	2a	2.cc
2r	2f	2a	.
.	.	.	4a
2G	2d	4g	2b-
.	.	4f	.
=123	=123	=123	=123
4A	4c	2.e	1a
4B-	4d	.	.
4c	4e	.	.
4A	4c	4f	.
2B-	4d	2g	1r
.	4e	.	.
2A	[2f	2a	.
=124	=124	=124	=124
1G	2f]	1b-	2r
.	2e	.	2g
2F	2f	1a	4a
.	.	.	4b-
2F	2c	.	4cc
.	.	.	4a
=125	=125	=125	=125
2B-	4d	1r	2b-
.	4e	.	.
2F	4f	.	2a
.	4d	.	.
1c	1e	2r	1g
.	.	2g	.
=126	=126	=126	=126
2F	1c	4a	0f
.	.	4b-	.
2F	.	4cc	.
.	.	4a	.
2D	2d	2b-	.
2F	[2c	2a	.
=127	=127	=127	=127
0F	4c]	0a	0cc
.	4B-	.	.
.	4A	.	.
.	4G	.	.
.	2F	.	.
.	[2f	.	.
=128	=128	=128	=128
[0C	2f]	[0g	[0cc
.	4e	.	.
.	4d	.	.
.	1e	.	.
=129	=129	=129	=129
0C]	0e	0g]	0cc]
==	==	==	==
*-	*-	*-	*-
!!!CDT: 1525/^1526/-1594/2/2
!!!OCY: Italia
!!!AGN: Mass (Parody)
!!!AST: renaissance, vocal
!!!ASW: Madrigal 1550 (Rore)
!!!PWK: Masses, Book 12
!!!RNB: Cadence finals: C
!!!YOR: Le Opere Complete, v. 29, p. 88
!!!YOO: Rome, Italy: Fratelli Scalera
!!!END: 1992//
!!!EED: John Miller
!!!YEC: Copyright 2000, John Miller
!!!YEN: United States of America
!!!YEM: Rights to all derivative electronic formats reserved.
!!!YEM: Refer to licensing agreement for further details.
!!!YEM: This file must be accompanied by the licensing agreement.
!!!YEM: A copy of the licensing agreement may be found at http://www.music-cog.ohio-state.edu/HumdrumDatabases/Palestrina/license.txt
!!!EMD: converted to Humdrum by Bret Aarden
